symbols/web/restart_alt/materialsymbolsrounded/restart_alt_wght500_48px.svg

<svg xmlns="http://www.w3.org/2000/svg" height="48" width="48"><path d="M20.65 41.95q-5.6-1.15-9.275-5.6Q7.7 31.9 7.7 26.05q0-3.5 1.45-6.6 1.45-3.1 4.15-5.3.45-.45 1.125-.425.675.025 1.125.525.55.5.5 1.225-.05.725-.65 1.275-2.05 1.7-3.175 4.15T11.1 26.05q0 4.65 2.825 8.075Q16.75 37.55 21.1 38.55q.65.15 1.05.65t.4 1.1q0 .8-.575 1.3t-1.325.35Zm6.85 0q-.8.15-1.375-.35t-.575-1.3q0-.6.4-1.1.4-.5 1.05-.65 4.4-1 7.175-4.425Q36.95 30.7 36.95 26.05q0-5.35-3.675-9.075Q29.6 13.25 24.25 13.2H23.2l1.95 1.95q.45.4.45 1.075 0 .675-.45 1.125-.45.45-1.125.45t-1.125-.45l-4.75-4.75q-.3-.25-.425-.55-.125-.3-.125-.65 0-.35.125-.625t.425-.575l4.75-4.8q.45-.4 1.125-.4t1.125.4q.45.5.45 1.175T25.15 7.7l-2.1 2.05h1.05q6.8 0 11.525 4.775Q40.35 19.3 40.35 26.05q0 5.85-3.65 10.3-3.65 4.45-9.2 5.6Z"/></svg>

<svg xmlns="http://www.w3.org/2000/svg" height="48" width="48"><path d="M20.65 41.95Q15.05 40.8 11.375 36.35Q7.7 31.9 7.7 26.05Q7.7 22.55 9.15 19.45Q10.6 16.35 13.3 14.15Q13.75 13.7 14.425 13.725Q15.1 13.75 15.55 14.25Q16.1 14.75 16.05 15.475Q16 16.2 15.4 16.75Q13.35 18.45 12.225 20.9Q11.1 23.35 11.1 26.05Q11.1 30.7 13.925 34.125Q16.75 37.55 21.1 38.55Q21.75 38.7 22.15 39.2Q22.55 39.7 22.55 40.3Q22.55 41.1 21.975 41.6Q21.4 42.1 20.65 41.95ZM27.5 41.95Q26.7 42.1 26.125 41.6Q25.55 41.1 25.55 40.3Q25.55 39.7 25.95 39.2Q26.35 38.7 27 38.55Q31.4 37.55 34.175 34.125Q36.95 30.7 36.95 26.05Q36.95 20.7 33.275 16.975Q29.6 13.25 24.25 13.2H23.2L25.15 15.15Q25.6 15.55 25.6 16.225Q25.6 16.9 25.15 17.35Q24.7 17.8 24.025 17.8Q23.35 17.8 22.9 17.35L18.15 12.6Q17.85 12.35 17.725 12.05Q17.6 11.75 17.6 11.4Q17.6 11.05 17.725 10.775Q17.85 10.5 18.15 10.2L22.9 5.4Q23.35 5 24.025 5Q24.7 5 25.15 5.4Q25.6 5.9 25.6 6.575Q25.6 7.25 25.15 7.7L23.05 9.75H24.1Q30.9 9.75 35.625 14.525Q40.35 19.3 40.35 26.05Q40.35 31.9 36.7 36.35Q33.05 40.8 27.5 41.95Z"/></svg>
